places/48/user-home.svg

<?xml version="1.0" encoding="UTF-8" standalone="no"?>
<!-- Created with Inkscape (http://www.inkscape.org/) -->

<svg
   xmlns:dc="http://purl.org/dc/elements/1.1/"
   xmlns:cc="http://creativecommons.org/ns#"
   xmlns:rdf="http://www.w3.org/1999/02/22-rdf-syntax-ns#"
   xmlns:svg="http://www.w3.org/2000/svg"
   xmlns="http://www.w3.org/2000/svg"
   xmlns:xlink="http://www.w3.org/1999/xlink"
   xmlns:sodipodi="http://sodipodi.sourceforge.net/DTD/sodipodi-0.dtd"
   xmlns:inkscape="http://www.inkscape.org/namespaces/inkscape"
   version="1.0"
   width="48"
   height="48"
   id="svg2676"
   inkscape:version="0.47pre1 r21720"
   sodipodi:docname="user-home_alt.svg"
   inkscape:output_extension="org.inkscape.output.svg.inkscape">
  <metadata
     id="metadata63">
    <rdf:RDF>
      <cc:Work
         rdf:about="">
        <dc:format>image/svg+xml</dc:format>
        <dc:type
           rdf:resource="http://purl.org/dc/dcmitype/StillImage" />
        <dc:title></dc:title>
      </cc:Work>
    </rdf:RDF>
  </metadata>
  <sodipodi:namedview
     pagecolor="#ffffff"
     bordercolor="#666666"
     borderopacity="1"
     objecttolerance="10"
     gridtolerance="10"
     guidetolerance="10"
     inkscape:pageopacity="0"
     inkscape:pageshadow="2"
     inkscape:window-width="1440"
     inkscape:window-height="796"
     id="namedview61"
     showgrid="false"
     inkscape:zoom="11.5"
     inkscape:cx="9"
     inkscape:cy="24"
     inkscape:window-x="0"
     inkscape:window-y="24"
     inkscape:window-maximized="1"
     inkscape:current-layer="svg2676" />
  <defs
     id="defs2678">
    <linearGradient
       id="linearGradient8265-821-176-38-919-66-249">
      <stop
         id="stop2687"
         style="stop-color:#ffffff;stop-opacity:0.2"
         offset="0" />
      <stop
         id="stop2689"
         style="stop-color:#ffffff;stop-opacity:0"
         offset="1" />
    </linearGradient>
    <linearGradient
       x1="11.566265"
       y1="22.292103"
       x2="15.214532"
       y2="33.95525"
       id="linearGradient3466"
       xlink:href="#linearGradient8265-821-176-38-919-66-249"
       gradientUnits="userSpaceOnUse" />
    <linearGradient
       id="linearGradient6087-437-184-795-110-662-495">
      <stop
         id="stop2693"
         style="stop-color:#ffffff;stop-opacity:0.40000001"
         offset="0" />
      <stop
         id="stop2695"
         style="stop-color:#ffffff;stop-opacity:0"
         offset="1" />
    </linearGradient>
    <radialGradient
       cx="7.2646537"
       cy="8.3021259"
       r="20.979567"
       fx="7.2646537"
       fy="8.3021259"
       id="radialGradient2442-940-759"
       xlink:href="#linearGradient6087-437-184-795-110-662-495"
       gradientUnits="userSpaceOnUse"
       gradientTransform="matrix(0,1.2079744,-1.6271642,0,26.371748,8.2664685)" />
    <linearGradient
       id="linearGradient6129-963-697-142-998-580-273">
      <stop
         id="stop2661"
         style="stop-color:#0a0a0a;stop-opacity:0.498"
         offset="0" />
      <stop
         id="stop2663"
         style="stop-color:#0a0a0a;stop-opacity:0"
         offset="1" />
    </linearGradient>
    <linearGradient
       x1="22.934725"
       y1="49.629246"
       x2="22.809399"
       y2="36.657963"
       id="linearGradient6462-657-405"
       xlink:href="#linearGradient6129-963-697-142-998-580-273"
       gradientUnits="userSpaceOnUse"
       gradientTransform="matrix(1.1446925,0,0,0.9977536,-3.4661413,1.0988425)" />
    <linearGradient
       id="linearGradient3390">
      <stop
         id="stop3392"
         style="stop-color:#425e7b;stop-opacity:1"
         offset="0" />
      <stop
         id="stop3394"
         style="stop-color:#7a91a7;stop-opacity:1"
         offset="1" />
    </linearGradient>
    <linearGradient
       x1="82.453476"
       y1="45.114193"
       x2="65.340263"
       y2="15.943953"
       id="linearGradient3412"
       xlink:href="#linearGradient3390"
       gradientUnits="userSpaceOnUse"
       gradientTransform="translate(-53.765393,-0.1141929)" />
    <linearGradient
       id="linearGradient7012-661-145-733-759-865-745">
      <stop
         id="stop2699"
         style="stop-color:#9cbbd9;stop-opacity:1"
         offset="0" />
      <stop
         id="stop2701"
         style="stop-color:#5c82ab;stop-opacity:1"
         offset="1" />
    </linearGradient>
    <radialGradient
       cx="63.969177"
       cy="14.113381"
       r="23.097054"
       fx="63.969177"
       fy="14.113381"
       id="radialGradient3404"
       xlink:href="#linearGradient7012-661-145-733-759-865-745"
       gradientUnits="userSpaceOnUse"
       gradientTransform="matrix(1.5646925,-9.5143002e-8,6.1772287e-8,1.015888,-86.212573,8.1461173)" />
    <linearGradient
       id="linearGradient5060-820">
      <stop
         id="stop2681"
         style="stop-color:#000000;stop-opacity:1"
         offset="0" />
      <stop
         id="stop2683"
         style="stop-color:#000000;stop-opacity:0"
         offset="1" />
    </linearGradient>
    <radialGradient
       cx="605.71429"
       cy="486.64789"
       r="117.14286"
       fx="605.71429"
       fy="486.64789"
       id="radialGradient7600-312"
       xlink:href="#linearGradient5060-820"
       gradientUnits="userSpaceOnUse"
       gradientTransform="matrix(-0.03212956,0,0,0.03705882,23.363215,25.412461)" />
    <linearGradient
       id="linearGradient5060-179">
      <stop
         id="stop2675"
         style="stop-color:#000000;stop-opacity:1"
         offset="0" />
      <stop
         id="stop2677"
         style="stop-color:#000000;stop-opacity:0"
         offset="1" />
    </linearGradient>
    <radialGradient
       cx="605.71429"
       cy="486.64789"
       r="117.14286"
       fx="605.71429"
       fy="486.64789"
       id="radialGradient7598-526"
       xlink:href="#linearGradient5060-179"
       gradientUnits="userSpaceOnUse"
       gradientTransform="matrix(0.03212956,0,0,0.03705882,24.636785,25.412461)" />
    <linearGradient
       id="linearGradient5048-585">
      <stop
         id="stop2667"
         style="stop-color:#000000;stop-opacity:0"
         offset="0" />
      <stop
         id="stop2669"
         style="stop-color:#000000;stop-opacity:1"
         offset="0.5" />
      <stop
         id="stop2671"
         style="stop-color:#000000;stop-opacity:0"
         offset="1" />
    </linearGradient>
    <linearGradient
       x1="302.85715"
       y1="366.64789"
       x2="302.85715"
       y2="609.50507"
       id="linearGradient7596-975"
       xlink:href="#linearGradient5048-585"
       gradientUnits="userSpaceOnUse"
       gradientTransform="matrix(0.08284024,0,0,0.03705882,-5.9408285,25.412461)" />
    <linearGradient
       id="linearGradient3484">
      <stop
         id="stop3486"
         style="stop-color:#bdbdbd;stop-opacity:1"
         offset="0" />
      <stop
         id="stop3488"
         style="stop-color:#d0d0d0;stop-opacity:1"
         offset="1" />
    </linearGradient>
    <radialGradient
       cx="3"
       cy="5.01718"
       r="21"
       fx="3"
       fy="5.01718"
       id="radialGradient3470"
       xlink:href="#linearGradient3484"
       gradientUnits="userSpaceOnUse"
       gradientTransform="matrix(-1.274898e-8,1.7142916,-2.159331,-1.4599595e-8,12.809361,2.8570011)" />
    <linearGradient
       id="linearGradient6404">
      <stop
         id="stop6406"
         style="stop-color:#f9f9f9;stop-opacity:1"
         offset="0" />
      <stop
         id="stop6408"
         style="stop-color:#c9c9c9;stop-opacity:1"
         offset="1" />
    </linearGradient>
    <linearGradient
       x1="62.988873"
       y1="13.182598"
       x2="62.988873"
       y2="16.19013"
       id="linearGradient3482"
       xlink:href="#linearGradient6404"
       gradientUnits="userSpaceOnUse"
       gradientTransform="translate(-50.940898,0)" />
  </defs>
  <g
     id="g2731">
    <path
       style="fill:url(#linearGradient3482);fill-opacity:1;stroke:url(#radialGradient3470);stroke-width:1.00000012;stroke-linecap:round;stroke-linejoin:round;stroke-miterlimit:4;stroke-opacity:1;stroke-dasharray:none;display:inline"
       id="path3468"
       d="m 5.4999991,8.4999995 c -0.690271,0.00767 -1,0.3421461 -1,1 l 0,2.0066475 c -1.9838616,0 -1.999999,0.1405 -1.999999,1 0.034411,10.290045 0,10.870138 0,11.743783 1.4354706,0 42.9999979,-3.699732 42.9999979,-5.292264 l 0,-6.451519 c 0,-0.657853 -0.554204,-1.007671 -1.244479,-1 l -22.75552,0 0,-2.0066475 c 0,-0.6578539 -0.309729,-1.0076715 -1,-1 l -14.9999999,0 z" />
    <g
       style="opacity:0.4"
       id="g7591"
       transform="matrix(0.9583333,0,0,0.6666667,1.0000008,15)">
      <rect
         style="fill:url(#linearGradient7596-975);fill-opacity:1;fill-rule:nonzero;stroke:none;stroke-width:1;marker:none;visibility:visible;display:inline;overflow:visible"
         id="rect4173"
         y="39"
         x="4"
         height="9"
         width="40" />
      <path
         style="fill:url(#radialGradient7598-526);fill-opacity:1;fill-rule:nonzero;stroke:none;stroke-width:1;marker:none;visibility:visible;display:inline;overflow:visible"
         id="path5058"
         d="m 44,39.00031 c 0,0 0,8.999504 0,8.999504 1.654593,0.01694 4.000001,-2.016333 4,-4.500331 0,-2.483999 -1.846402,-4.499173 -4,-4.499173 z" />
      <path
         style="fill:url(#radialGradient7600-312);fill-opacity:1;fill-rule:nonzero;stroke:none;stroke-width:1;marker:none;visibility:visible;display:inline;overflow:visible"
         id="path5018"
         d="m 4,39.00031 c 0,0 0,8.999504 0,8.999504 C 2.3454068,48.016755 0,45.983481 0,43.499483 0,41.015484 1.8464008,39.00031 4,39.00031 z" />
    </g>
    <path
       style="fill:url(#radialGradient3404);fill-opacity:1;stroke:url(#linearGradient3412);stroke-width:1;stroke-linecap:round;stroke-linejoin:round;stroke-miterlimit:4;stroke-opacity:1;stroke-dashoffset:0"
       id="path3388"
       d="m 2.1628556,16.525193 c -1.072707,0.123694 -0.49977,1.402118 -0.585297,2.121012 0.392532,8.47009 0.788932,16.769455 1.179047,25.239602 0.341836,0.965693 1.594435,0.47116 2.388117,0.59375 13.1935444,0 26.3870894,0 39.5806354,0 1.08938,-0.106651 0.63646,-1.407681 0.7897,-2.152262 0.39254,-8.47009 0.78894,-16.769455 1.17905,-25.239602 -0.25117,-0.954289 -1.51951,-0.424014 -2.263123,-0.5625 -14.089374,0 -28.178751,0 -42.2681294,0 z" />
    <path
       style="opacity:0.4;fill:url(#linearGradient6462-657-405);fill-opacity:1;stroke:none"
       id="path6127"
       d="m 2.0582428,16.065146 43.8964752,4.03e-4 c 0.63416,0 1.045155,0.444611 1.045155,0.997367 L 45.755637,44.002247 C 45.755637,44.555002 45.245105,45 44.610947,45 L 3.4020122,45 C 2.7678523,45 2.2573195,44.555002 2.2573195,44.002247 L 1.0130886,17.0629 c 0,-0.552757 0.4109943,-0.997754 1.0451542,-0.997754 z" />
    <path
       style="fill:none;stroke:url(#radialGradient2442-940-759);stroke-width:0.99999976;stroke-linecap:round;stroke-linejoin:round;stroke-miterlimit:4;stroke-opacity:1;stroke-dasharray:none"
       id="path2435"
       d="m 46.5,17.5 c -13.53125,0 -30.46875,0 -44,0 0.3854167,8.177083 0.7708333,16.354167 1.15625,24.53125" />
    <path
       style="fill:url(#linearGradient3466);fill-opacity:1;stroke:none"
       id="path3455"
       d="M 45.75,16 C 31.20041,16.073348 16.645416,15.978851 2.09375,16 0.28698984,16.411117 1.2593433,18.46661 1.1213236,19.771525 1.3433531,23.934872 1.4443903,28.116464 1.7417851,32.268407 16.742298,29.905609 31.66833,27.661153 46.40625,25.21875 47.187241,22.632172 47.193628,19.548156 47.063607,16.789526 46.834471,16.284964 46.276599,15.988682 45.75,16 z" />
  </g>
  <path
     style="opacity:0.40000000000000002;fill:#ffffff;fill-opacity:1;fill-rule:evenodd;stroke-width:3pt;display:inline"
     id="path3521"
     d="m 13,32 0,10 10.032581,0 0,-9 6,0 0,9 L 35,42 35,32 39,32 24,21 9,32 l 4,0 z" />
  <path
     style="opacity:1;fill:#415972;fill-opacity:1;fill-rule:evenodd;stroke-width:3pt;display:inline"
     id="path3521-7"
     d="m 13,31 0,10 10.032581,0 0,-9 6,0 0,9 L 35,41 35,31 39,31 24,20 9,31 l 4,0 z" />
</svg>

<?xml version="1.0" encoding="UTF-8" standalone="no"?>
<!-- Created with Inkscape (http://www.inkscape.org/) -->
<svg
   xmlns:svg="http://www.w3.org/2000/svg"
   xmlns="http://www.w3.org/2000/svg"
   xmlns:xlink="http://www.w3.org/1999/xlink"
   version="1.0"
   width="48"
   height="48"
   id="svg2676">
  <defs
     id="defs2678">
    <linearGradient
       id="linearGradient8265-821-176-38-919-66-249">
      <stop
         id="stop2687"
         style="stop-color:#ffffff;stop-opacity:0.2"
         offset="0" />
      <stop
         id="stop2689"
         style="stop-color:#ffffff;stop-opacity:0"
         offset="1" />
    </linearGradient>
    <linearGradient
       x1="11.566265"
       y1="22.292103"
       x2="15.214532"
       y2="33.95525"
       id="linearGradient3466"
       xlink:href="#linearGradient8265-821-176-38-919-66-249"
       gradientUnits="userSpaceOnUse" />
    <linearGradient
       id="linearGradient6087-437-184-795-110-662-495">
      <stop
         id="stop2693"
         style="stop-color:#ffffff;stop-opacity:0.40000001"
         offset="0" />
      <stop
         id="stop2695"
         style="stop-color:#ffffff;stop-opacity:0"
         offset="1" />
    </linearGradient>
    <radialGradient
       cx="7.2646537"
       cy="8.3021259"
       r="20.979567"
       fx="7.2646537"
       fy="8.3021259"
       id="radialGradient2442-940-759"
       xlink:href="#linearGradient6087-437-184-795-110-662-495"
       gradientUnits="userSpaceOnUse"
       gradientTransform="matrix(0,1.2079744,-1.6271642,0,26.371748,8.2664685)" />
    <linearGradient
       id="linearGradient6129-963-697-142-998-580-273">
      <stop
         id="stop2661"
         style="stop-color:#0a0a0a;stop-opacity:0.498"
         offset="0" />
      <stop
         id="stop2663"
         style="stop-color:#0a0a0a;stop-opacity:0"
         offset="1" />
    </linearGradient>
    <linearGradient
       x1="22.934725"
       y1="49.629246"
       x2="22.809399"
       y2="36.657963"
       id="linearGradient6462-657-405"
       xlink:href="#linearGradient6129-963-697-142-998-580-273"
       gradientUnits="userSpaceOnUse"
       gradientTransform="matrix(1.1446925,0,0,0.9977536,-3.4661413,1.0988425)" />
    <linearGradient
       id="linearGradient3390">
      <stop
         id="stop3392"
         style="stop-color:#425e7b;stop-opacity:1"
         offset="0" />
      <stop
         id="stop3394"
         style="stop-color:#7a91a7;stop-opacity:1"
         offset="1" />
    </linearGradient>
    <linearGradient
       x1="82.453476"
       y1="45.114193"
       x2="65.340263"
       y2="15.943953"
       id="linearGradient3412"
       xlink:href="#linearGradient3390"
       gradientUnits="userSpaceOnUse"
       gradientTransform="translate(-53.765393,-0.1141929)" />
    <linearGradient
       id="linearGradient7012-661-145-733-759-865-745">
      <stop
         id="stop2699"
         style="stop-color:#9cbbd9;stop-opacity:1"
         offset="0" />
      <stop
         id="stop2701"
         style="stop-color:#5c82ab;stop-opacity:1"
         offset="1" />
    </linearGradient>
    <radialGradient
       cx="63.969177"
       cy="14.113381"
       r="23.097054"
       fx="63.969177"
       fy="14.113381"
       id="radialGradient3404"
       xlink:href="#linearGradient7012-661-145-733-759-865-745"
       gradientUnits="userSpaceOnUse"
       gradientTransform="matrix(1.5646925,-9.5143002e-8,6.1772287e-8,1.015888,-86.212573,8.1461173)" />
    <linearGradient
       id="linearGradient5060-820">
      <stop
         id="stop2681"
         style="stop-color:#000000;stop-opacity:1"
         offset="0" />
      <stop
         id="stop2683"
         style="stop-color:#000000;stop-opacity:0"
         offset="1" />
    </linearGradient>
    <radialGradient
       cx="605.71429"
       cy="486.64789"
       r="117.14286"
       fx="605.71429"
       fy="486.64789"
       id="radialGradient7600-312"
       xlink:href="#linearGradient5060-820"
       gradientUnits="userSpaceOnUse"
       gradientTransform="matrix(-3.2129558e-2,0,0,3.7058823e-2,23.363215,25.412461)" />
    <linearGradient
       id="linearGradient5060-179">
      <stop
         id="stop2675"
         style="stop-color:#000000;stop-opacity:1"
         offset="0" />
      <stop
         id="stop2677"
         style="stop-color:#000000;stop-opacity:0"
         offset="1" />
    </linearGradient>
    <radialGradient
       cx="605.71429"
       cy="486.64789"
       r="117.14286"
       fx="605.71429"
       fy="486.64789"
       id="radialGradient7598-526"
       xlink:href="#linearGradient5060-179"
       gradientUnits="userSpaceOnUse"
       gradientTransform="matrix(3.2129565e-2,0,0,3.7058823e-2,24.636785,25.412461)" />
    <linearGradient
       id="linearGradient5048-585">
      <stop
         id="stop2667"
         style="stop-color:#000000;stop-opacity:0"
         offset="0" />
      <stop
         id="stop2669"
         style="stop-color:#000000;stop-opacity:1"
         offset="0.5" />
      <stop
         id="stop2671"
         style="stop-color:#000000;stop-opacity:0"
         offset="1" />
    </linearGradient>
    <linearGradient
       x1="302.85715"
       y1="366.64789"
       x2="302.85715"
       y2="609.50507"
       id="linearGradient7596-975"
       xlink:href="#linearGradient5048-585"
       gradientUnits="userSpaceOnUse"
       gradientTransform="matrix(8.2840237e-2,0,0,3.7058823e-2,-5.9408285,25.412461)" />
    <linearGradient
       id="linearGradient3484">
      <stop
         id="stop3486"
         style="stop-color:#bdbdbd;stop-opacity:1"
         offset="0" />
      <stop
         id="stop3488"
         style="stop-color:#d0d0d0;stop-opacity:1"
         offset="1" />
    </linearGradient>
    <radialGradient
       cx="3"
       cy="5.01718"
       r="21"
       fx="3"
       fy="5.01718"
       id="radialGradient3470"
       xlink:href="#linearGradient3484"
       gradientUnits="userSpaceOnUse"
       gradientTransform="matrix(-1.274898e-8,1.7142916,-2.159331,-1.4599595e-8,12.809361,2.8570011)" />
    <linearGradient
       id="linearGradient6404">
      <stop
         id="stop6406"
         style="stop-color:#f9f9f9;stop-opacity:1"
         offset="0" />
      <stop
         id="stop6408"
         style="stop-color:#c9c9c9;stop-opacity:1"
         offset="1" />
    </linearGradient>
    <linearGradient
       x1="62.988873"
       y1="13.182598"
       x2="62.988873"
       y2="16.19013"
       id="linearGradient3482"
       xlink:href="#linearGradient6404"
       gradientUnits="userSpaceOnUse"
       gradientTransform="translate(-50.940898,0)" />
    <linearGradient
       id="linearGradient9911">
      <stop
         id="stop9913"
         style="stop-color:#eeeeec;stop-opacity:1"
         offset="0" />
      <stop
         id="stop9915"
         style="stop-color:#eeeeec;stop-opacity:0"
         offset="1" />
    </linearGradient>
    <linearGradient
       x1="24"
       y1="22"
       x2="24"
       y2="40.810162"
       id="linearGradient2674"
       xlink:href="#linearGradient9911"
       gradientUnits="userSpaceOnUse"
       gradientTransform="matrix(1.5,0,0,1.5,-12,-13.000001)" />
  </defs>
  <g
     id="layer1">
    <g
       id="g2731">
      <path
         d="M 5.4999991,8.4999995 C 4.8097281,8.5076711 4.4999991,8.8421456 4.4999991,9.4999995 L 4.4999991,11.506647 C 2.5161375,11.506647 2.5000001,11.647147 2.5000001,12.506647 C 2.5344111,22.796692 2.5000001,23.376785 2.5000001,24.25043 C 3.9354707,24.25043 45.499998,20.550698 45.499998,18.958166 L 45.499998,12.506647 C 45.499998,11.848794 44.945794,11.498976 44.255519,11.506647 L 21.499999,11.506647 L 21.499999,9.4999995 C 21.499999,8.8421456 21.19027,8.492328 20.499999,8.4999995 L 5.4999991,8.4999995 z"
         id="path3468"
         style="opacity:1;fill:url(#linearGradient3482);fill-opacity:1;stroke:url(#radialGradient3470);stroke-width:1.00000012;stroke-linecap:round;stroke-linejoin:round;stroke-miterlimit:4;stroke-dasharray:none;stroke-opacity:1;display:inline" />
      <g
         transform="matrix(0.9583333,0,0,0.6666667,1.0000008,15)"
         id="g7591"
         style="opacity:0.4">
        <rect
           width="40"
           height="9"
           x="4"
           y="39"
           id="rect4173"
           style="opacity:1;fill:url(#linearGradient7596-975);fill-opacity:1;fill-rule:nonzero;stroke:none;stroke-width:1;stroke-linecap:round;stroke-linejoin:miter;marker:none;marker-start:none;marker-mid:none;marker-end:none;stroke-miterlimit:4;stroke-dasharray:none;stroke-dashoffset:0;stroke-opacity:1;visibility:visible;display:inline;overflow:visible" />
        <path
           d="M 44,39.00031 C 44,39.00031 44,47.999814 44,47.999814 C 45.654593,48.016755 48.000001,45.983481 48,43.499483 C 48,41.015484 46.153598,39.00031 44,39.00031 z"
           id="path5058"
           style="opacity:1;fill:url(#radialGradient7598-526);fill-opacity:1;fill-rule:nonzero;stroke:none;stroke-width:1;stroke-linecap:round;stroke-linejoin:miter;marker:none;marker-start:none;marker-mid:none;marker-end:none;stroke-miterlimit:4;stroke-dasharray:none;stroke-dashoffset:0;stroke-opacity:1;visibility:visible;display:inline;overflow:visible" />
        <path
           d="M 4,39.00031 C 4,39.00031 4,47.999814 4,47.999814 C 2.3454068,48.016755 0,45.983481 0,43.499483 C 0,41.015484 1.8464008,39.00031 4,39.00031 z"
           id="path5018"
           style="opacity:1;fill:url(#radialGradient7600-312);fill-opacity:1;fill-rule:nonzero;stroke:none;stroke-width:1;stroke-linecap:round;stroke-linejoin:miter;marker:none;marker-start:none;marker-mid:none;marker-end:none;stroke-miterlimit:4;stroke-dasharray:none;stroke-dashoffset:0;stroke-opacity:1;visibility:visible;display:inline;overflow:visible" />
      </g>
      <path
         d="M 2.1628556,16.525193 C 1.0901486,16.648887 1.6630856,17.927311 1.5775586,18.646205 C 1.9700906,27.116295 2.3664906,35.41566 2.7566056,43.885807 C 3.0984416,44.8515 4.3510406,44.356967 5.1447226,44.479557 C 18.338267,44.479557 31.531812,44.479557 44.725358,44.479557 C 45.814738,44.372906 45.361818,43.071876 45.515058,42.327295 C 45.907598,33.857205 46.303998,25.55784 46.694108,17.087693 C 46.442938,16.133404 45.174598,16.663679 44.430985,16.525193 C 30.341611,16.525193 16.252234,16.525193 2.1628556,16.525193 z"
         id="path3388"
         style="opacity:1;fill:url(#radialGradient3404);fill-opacity:1;stroke:url(#linearGradient3412);stroke-width:1;stroke-linecap:round;stroke-linejoin:round;stroke-miterlimit:4;stroke-dashoffset:0;stroke-opacity:1" />
      <path
         d="M 2.0582428,16.065146 L 45.954718,16.065549 C 46.588878,16.065549 46.999873,16.51016 46.999873,17.062916 L 45.755637,44.002247 C 45.755637,44.555002 45.245105,45 44.610947,45 L 3.4020122,45 C 2.7678523,45 2.2573195,44.555002 2.2573195,44.002247 L 1.0130886,17.0629 C 1.0130886,16.510143 1.4240829,16.065146 2.0582428,16.065146 z"
         id="path6127"
         style="opacity:0.4;fill:url(#linearGradient6462-657-405);fill-opacity:1;stroke:none;stroke-width:1;stroke-linecap:round;stroke-linejoin:round;stroke-miterlimit:4;stroke-dashoffset:0;stroke-opacity:1" />
      <path
         d="M 46.5,17.5 C 32.96875,17.5 16.03125,17.5 2.5,17.5 C 2.8854167,25.677083 3.2708333,33.854167 3.65625,42.03125"
         id="path2435"
         style="opacity:1;fill:none;fill-rule:evenodd;stroke:url(#radialGradient2442-940-759);stroke-width:0.99999976;stroke-linecap:round;stroke-linejoin:round;stroke-miterlimit:4;stroke-dasharray:none;stroke-opacity:1" />
      <path
         d="M 45.75,16 C 31.20041,16.073348 16.645416,15.978851 2.09375,16 C 0.28698984,16.411117 1.2593433,18.46661 1.1213236,19.771525 C 1.3433531,23.934872 1.4443903,28.116464 1.7417851,32.268407 C 16.742298,29.905609 31.66833,27.661153 46.40625,25.21875 C 47.187241,22.632172 47.193628,19.548156 47.063607,16.789526 C 46.834471,16.284964 46.276599,15.988682 45.75,16 z"
         id="path3455"
         style="opacity:1;fill:url(#linearGradient3466);fill-opacity:1;stroke:none;stroke-width:1;stroke-linecap:round;stroke-linejoin:round;stroke-miterlimit:4;stroke-dashoffset:0;stroke-opacity:1" />
    </g>
    <path
       d="M 13,31 L 13,41 L 23.032581,41 L 23.032581,32 L 29.032581,32 L 29.032581,41 L 35,41 L 35,31 L 39,31 L 24,20 L 9,31 L 13,31 z"
       id="path3521"
       style="opacity:0.9;fill:url(#linearGradient2674);fill-opacity:1;fill-rule:evenodd;stroke-width:3pt;display:inline" />
  </g>
</svg>
